build/documents/FileJPGOutline.svg

<svg xmlns="http://www.w3.org/2000/svg" fill="none" viewBox="0 0 24 24" focusable="false"><path d="M0 0H24V24H0z"/><path fill="#74767B" fill-rule="evenodd" d="M5 6L5 11C3.34315 11 2 12.3431 2 14L2 18C2 19.6569 3.34315 21 5 21L19 21C20.6569 21 22 19.6569 22 18L22 14C22 12.3431 20.6569 11 19 11L19 9.17966C19 8.42148 18.7129 7.69141 18.1965 7.13629L15.2385 3.95662C14.671 3.34655 13.8752 3 13.042 3L8 3C6.34315 3 5 4.34315 5 6ZM8 4.3L13.042 4.3C13.1461 4.3 13.2491 4.30954 13.3499 4.32811L13.3499 7.04926C13.3499 8.12621 14.223 8.99926 15.2999 8.99926L17.6904 8.99925C17.6968 9.05892 17.7 9.11913 17.7 9.17966L17.7 11L6.3 11L6.3 6C6.3 5.06112 7.06112 4.3 8 4.3ZM14.6499 7.04926L14.6499 5.23254L16.9447 7.69926L15.2999 7.69926C14.9409 7.69926 14.6499 7.40824 14.6499 7.04926ZM19 12.3L5 12.3C4.06112 12.3 3.3 13.0611 3.3 14L3.3 18C3.3 18.9389 4.06112 19.7 5 19.7L19 19.7C19.9389 19.7 20.7 18.9389 20.7 18L20.7 14C20.7 13.0611 19.9389 12.3 19 12.3ZM7.98893 13.594C8.34792 13.594 8.63893 13.885 8.63893 14.244L8.63894 16.4613C8.63894 17.5383 7.76589 18.4113 6.68893 18.4113L6.05469 18.4113C5.6957 18.4113 5.40469 18.1203 5.40469 17.7613C5.40469 17.4023 5.6957 17.1113 6.05469 17.1113L6.68893 17.1113C7.04792 17.1113 7.33893 16.8203 7.33893 16.4613L7.33893 14.244C7.33893 13.885 7.62995 13.594 7.98893 13.594ZM10.7672 18.4113C11.1262 18.4113 11.4172 18.1203 11.4172 17.7613L11.4172 17.1888L12.0853 17.1888C13.078 17.1888 13.8828 16.3841 13.8828 15.3914C13.8828 14.3987 13.078 13.594 12.0853 13.594L10.7673 13.594C10.4083 13.594 10.1172 13.885 10.1172 14.244L10.1172 17.7613C10.1172 18.1203 10.4083 18.4113 10.7672 18.4113ZM16.9322 14.8941C16.5732 14.8941 16.2822 15.1851 16.2822 15.5441L16.2822 16.4613C16.2822 16.8203 16.5732 17.1113 16.9322 17.1113L17.2452 17.1113C17.2728 17.1113 17.2952 17.0889 17.2952 17.0613L17.2952 16.562C17.2952 16.203 17.5862 15.912 17.9452 15.912C18.3042 15.912 18.5952 16.203 18.5952 16.562L18.5952 17.0613C18.5952 17.8069 17.9908 18.4113 17.2452 18.4113L16.9322 18.4113C15.8552 18.4113 14.9822 17.5382 14.9822 16.4613L14.9822 15.5441C14.9822 14.4671 15.8552 13.5941 16.9322 13.5941L17.9452 13.5941C18.3042 13.5941 18.5952 13.8851 18.5952 14.2441C18.5952 14.6031 18.3042 14.8941 17.9452 14.8941L16.9322 14.8941ZM11.4172 15.8888L11.4172 14.894L12.0853 14.894C12.3601 14.894 12.5828 15.1167 12.5828 15.3914C12.5828 15.6661 12.3601 15.8888 12.0853 15.8888L11.4172 15.8888Z"/></svg>

<svg xmlns="http://www.w3.org/2000/svg" fill="none" viewBox="0 0 24 24" focusable="false"><path fill="#74767B" fill-rule="evenodd" d="M5 6v5c-1.66 0-3 1.34-3 3v4c0 1.65 1.34 3 3 3h14c1.65 0 3-1.35 3-3v-4c0-1.66-1.35-3-3-3V9.17c0-.75-.29-1.48-.81-2.04l-2.96-3.18c-.56-.61-1.36-.95-2.19-.95H8C6.34 3 5 4.34 5 6m3-1.71h5.04q.15 0 .3.03v2.72c0 1.08.88 1.95 1.95 1.95h2.4c0 .06.01.12.01.18V11H6.3V6c0-.94.76-1.71 1.7-1.71m6.64 2.75V5.23l2.3 2.46h-1.65c-.35 0-.65-.29-.65-.65M19 12.3H5c-.94 0-1.7.76-1.7 1.7v4c0 .93.76 1.7 1.7 1.7h14c.93 0 1.7-.77 1.7-1.7v-4c0-.94-.77-1.7-1.7-1.7M7.98 13.59c.36 0 .65.29.65.65v2.22c0 1.07-.87 1.95-1.95 1.95h-.63c-.36 0-.65-.29-.65-.65s.29-.65.65-.65h.63c.36 0 .65-.29.65-.65v-2.22c0-.36.29-.65.65-.65m3.43 4.17c0 .36-.29.65-.65.65s-.65-.29-.65-.65v-3.52c0-.36.29-.65.65-.65h1.32c.99 0 1.8.8 1.8 1.8 0 .99-.81 1.79-1.8 1.79h-.67zm5.52-2.87c-.36 0-.65.29-.65.65v.92c0 .36.29.65.65.65h.31c.03 0 .05-.03.05-.05v-.5c0-.36.29-.65.65-.65s.65.29.65.65v.5c0 .74-.6 1.35-1.35 1.35h-.31c-1.08 0-1.95-.88-1.95-1.95v-.92c0-1.08.87-1.95 1.95-1.95h1.01c.36 0 .65.29.65.65s-.29.65-.65.65zm-5.52 0v.99h.67a.495.495 0 1 0 0-.99z"/></svg>
